X: 41172
T: Tripping To The Well
R: polka
M: 2/4
K: Gmajor
|:G>A BG|E/F/G ED|G>A Bd|BA AF|
G>A BG|E/F/G ED|BG D/E/F/G/|1 AG GF:|2 AG GB/c/||
|:dB G>A|BG ED|dB G>A|BG AB/c/|
dB G>A|BG ED|BG D/E/F/G/|1 AG GB/c/:|2 AG GF||

